X:1
T:title
M:4/4
Q:120
L:1/8
R:Reel
K:C
 _e'4 ^g'2 ^D ^F |  _E3 ^D4 _g' |  ^C _b'3 _A2f'2 |  ^G4 ^g _b3 | B4g'2 ^c' ^G |  _b'g3 _f _c'2 ^D |  ^Fe'2 ^c _e3 _D | b' _e'4 ^D _f _g' | 